X:1
T:Oh, Lilly O
M:3/4
L:1/8
K:C
 DGB| d2 dB AB| G3 de B| d3 de d| B2 BB AG| E3|A-G E| D3- GG A| G3||\
